X: 77
T: The Little Rattlesnake
N: Derived from pawnee77.krn
O: Oklahoma, U.S.A.
N: from Pawnee Music by Frances Densmore, 1926
Z: transcribed to **kern format by David Huron, August 2000
C: Skidi and Chaui Bands, 1919
L: 1/8
M: 5/8
Q: 1/4=88
K: E clef=treble
%%linebreak <none>
C [I:setbarnb 1]| 
G G G G G[M:3/8] | 
G F E | 
F2E[M:4/8] | 
C2>C2[M:3/8] F F F | 
F E E[M:4/8] | 
F2E C[M:3/8] | 
C3[M:4/8] | 
F2E C[M:3/8] | 
C3 | 
C2C[M:4/8] | 
CC2 :|]  



